X: 25828
T: Master Crowley's
R: reel
M: 4/4
K: Ddorian
|:A,D ~D2 A,DFD|DCA,C G,CEC|A,D ~D2 A,DFD|EGcG EDDC|
A,D ~D2 A,DFD|DCA,C G,CEC|A,D ~D2 A,DFD|EGcG EDDC:|
|:Da^ga efdf|ec ~c2 gcec|da^ga efdf|edcd eddc|
da^ga fedf|ec ~c2 gcec|DEFG AFcA|GECD EDDC:|

